ba2/images/img_road05.svg

<svg id="圖層_1" data-name="圖層 1" xmlns="http://www.w3.org/2000/svg" viewBox="0 0 140.73 105.73"><defs><style>.cls-1,.cls-2{fill:#fff;}.cls-1{stroke:#000;stroke-miterlimit:10;}.cls-3{fill:#005dff;}.cls-4{fill:red;}</style></defs><g id="圖層_1-2" data-name="圖層 1"><rect class="cls-1" x="0.36" y="0.36" width="17.5" height="17.5"/><rect class="cls-1" x="17.86" y="0.36" width="17.5" height="17.5"/><rect class="cls-1" x="35.36" y="0.36" width="17.5" height="17.5"/><rect class="cls-1" x="52.86" y="0.36" width="17.5" height="17.5"/><rect class="cls-1" x="70.36" y="0.36" width="17.5" height="17.5"/><rect class="cls-1" x="87.86" y="0.36" width="17.5" height="17.5"/><rect class="cls-1" x="105.36" y="0.36" width="17.5" height="17.5"/><rect class="cls-1" x="122.86" y="0.36" width="17.5" height="17.5"/><rect class="cls-1" x="0.36" y="17.86" width="17.5" height="17.5"/><rect class="cls-1" x="17.86" y="17.86" width="17.5" height="17.5"/><rect class="cls-1" x="35.36" y="17.86" width="17.5" height="17.5"/><rect class="cls-1" x="52.86" y="17.86" width="17.5" height="17.5"/><path class="cls-2" d="M26.61,16.61a7.5,7.5,0,1,1,7.5-7.5A7.5,7.5,0,0,1,26.61,16.61Z"/><path class="cls-3" d="M26.61,2.86a6.25,6.25,0,1,1-6.25,6.25,6.25,6.25,0,0,1,6.25-6.25m0-2.5a8.75,8.75,0,0,0-8.75,8.75h0a8.75,8.75,0,0,0,17.5,0h0A8.75,8.75,0,0,0,26.61.36Z"/><path class="cls-2" d="M44.11,16.61a7.5,7.5,0,1,1,7.5-7.5A7.5,7.5,0,0,1,44.11,16.61Z"/><path class="cls-4" d="M44.11,2.86a6.25,6.25,0,1,1-6.25,6.25,6.25,6.25,0,0,1,6.25-6.25m0-2.5a8.75,8.75,0,0,0-8.75,8.75h0a8.75,8.75,0,0,0,17.5,0h0A8.75,8.75,0,0,0,44.11.36Z"/><path class="cls-2" d="M61.61,16.61a7.5,7.5,0,1,1,7.5-7.5A7.5,7.5,0,0,1,61.61,16.61Z"/><path class="cls-3" d="M61.61,2.86a6.25,6.25,0,1,1-6.25,6.25,6.25,6.25,0,0,1,6.25-6.25m0-2.5a8.75,8.75,0,0,0-8.75,8.75h0a8.75,8.75,0,0,0,17.5,0h0A8.75,8.75,0,0,0,61.61.36Z"/><path class="cls-2" d="M26.61,34.11a7.5,7.5,0,1,1,7.5-7.5A7.5,7.5,0,0,1,26.61,34.11Z"/><path class="cls-3" d="M26.61,20.36a6.25,6.25,0,1,1-6.25,6.25,6.25,6.25,0,0,1,6.25-6.25m0-2.5a8.75,8.75,0,0,0-8.75,8.75h0a8.75,8.75,0,0,0,17.5,0h0a8.75,8.75,0,0,0-8.75-8.75Z"/><path class="cls-2" d="M61.61,34.11a7.5,7.5,0,1,1,7.5-7.5A7.5,7.5,0,0,1,61.61,34.11Z"/><path class="cls-3" d="M61.61,20.36a6.25,6.25,0,1,1-6.25,6.25,6.25,6.25,0,0,1,6.25-6.25m0-2.5a8.75,8.75,0,0,0-8.75,8.75h0a8.75,8.75,0,0,0,17.5,0h0a8.75,8.75,0,0,0-8.75-8.75Z"/><rect class="cls-1" x="70.36" y="17.86" width="17.5" height="17.5"/><rect class="cls-1" x="87.86" y="17.86" width="17.5" height="17.5"/><rect class="cls-1" x="105.36" y="17.86" width="17.5" height="17.5"/><rect class="cls-1" x="122.86" y="17.86" width="17.5" height="17.5"/><rect class="cls-1" x="0.36" y="35.36" width="17.5" height="17.5"/><rect class="cls-1" x="17.86" y="35.36" width="17.5" height="17.5"/><rect class="cls-1" x="35.36" y="35.36" width="17.5" height="17.5"/><rect class="cls-1" x="52.86" y="35.36" width="17.5" height="17.5"/><rect class="cls-1" x="70.36" y="35.36" width="17.5" height="17.5"/><rect class="cls-1" x="87.86" y="35.36" width="17.5" height="17.5"/><rect class="cls-1" x="105.36" y="35.36" width="17.5" height="17.5"/><rect class="cls-1" x="122.86" y="35.36" width="17.5" height="17.5"/><rect class="cls-1" x="0.36" y="52.86" width="17.5" height="17.5"/><rect class="cls-1" x="17.86" y="52.86" width="17.5" height="17.5"/><rect class="cls-1" x="35.36" y="52.86" width="17.5" height="17.5"/><rect class="cls-1" x="52.86" y="52.86" width="17.5" height="17.5"/><rect class="cls-1" x="70.36" y="52.86" width="17.5" height="17.5"/><rect class="cls-1" x="87.86" y="52.86" width="17.5" height="17.5"/><rect class="cls-1" x="105.36" y="52.86" width="17.5" height="17.5"/><rect class="cls-1" x="122.86" y="52.86" width="17.5" height="17.5"/><rect class="cls-1" x="0.36" y="70.36" width="17.5" height="17.5"/><rect class="cls-1" x="17.86" y="70.36" width="17.5" height="17.5"/><rect class="cls-1" x="35.36" y="70.36" width="17.5" height="17.5"/><rect class="cls-1" x="52.86" y="70.36" width="17.5" height="17.5"/><rect class="cls-1" x="70.36" y="70.36" width="17.5" height="17.5"/><rect class="cls-1" x="87.86" y="70.36" width="17.5" height="17.5"/><rect class="cls-1" x="105.36" y="70.36" width="17.5" height="17.5"/><rect class="cls-1" x="122.86" y="70.36" width="17.5" height="17.5"/><rect class="cls-1" x="0.36" y="87.86" width="17.5" height="17.5"/><rect class="cls-1" x="17.86" y="87.86" width="17.5" height="17.5"/><rect class="cls-1" x="35.36" y="87.86" width="17.5" height="17.5"/><rect class="cls-1" x="52.86" y="87.86" width="17.5" height="17.5"/><rect class="cls-1" x="70.36" y="87.86" width="17.5" height="17.5"/><rect class="cls-1" x="87.86" y="87.86" width="17.5" height="17.5"/><rect class="cls-1" x="105.36" y="87.86" width="17.5" height="17.5"/><rect class="cls-1" x="122.86" y="87.86" width="17.5" height="17.5"/><circle class="cls-2" cx="9.11" cy="9.11" r="7.38"/><path class="cls-4" d="M9.11,3.1a6,6,0,1,1-6,6,6,6,0,0,1,6-6m0-2.74a8.75,8.75,0,1,0,8.75,8.75A8.75,8.75,0,0,0,9.11.36Z"/></g></svg>

<?xml version="1.0" encoding="utf-8"?>
<!-- Generator: Adobe Illustrator 25.2.3, SVG Export Plug-In . SVG Version: 6.00 Build 0)  -->
<svg version="1.1" xmlns="http://www.w3.org/2000/svg" xmlns:xlink="http://www.w3.org/1999/xlink" x="0px" y="0px"
	 viewBox="0 0 140.73 105.73" style="enable-background:new 0 0 140.73 105.73;" xml:space="preserve">
<style type="text/css">
	.st0{fill:#FFFFFF;stroke:#000000;stroke-miterlimit:10;}
	.st1{fill:#FF0000;}
	.st2{fill:#FFFFFF;stroke:#B2B2B2;stroke-miterlimit:10;}
	.st3{fill:#FFFFFF;}
	.st4{fill:#005DFF;}
	.st5{fill:#FF302A;}
	.st6{fill:#008ED6;}
	.st7{fill:none;stroke:#FF0000;stroke-width:2;stroke-miterlimit:10;}
	.st8{fill:none;stroke:#14B045;stroke-width:2.7;stroke-linecap:round;stroke-linejoin:round;stroke-miterlimit:10;}
	.st9{fill:none;stroke:#000000;stroke-miterlimit:10;}
	.st10{fill:none;stroke:#FF302A;stroke-width:1.6561;stroke-linecap:round;stroke-miterlimit:10;}
	.st11{fill:none;stroke:#005DFF;stroke-width:1.6561;stroke-linecap:round;stroke-linejoin:round;stroke-miterlimit:10;}
	.st12{fill:none;stroke:#005DFF;stroke-width:1.6561;stroke-linecap:round;stroke-miterlimit:10;}
	.st13{fill:none;stroke:url(#SVGID_1_);stroke-width:0.803;stroke-miterlimit:10;}
	.st14{fill:none;stroke:url(#SVGID_2_);stroke-width:0.803;stroke-miterlimit:10;}
	.st15{fill:none;stroke:url(#SVGID_3_);stroke-width:0.803;stroke-miterlimit:10;}
	.st16{fill:none;stroke:url(#SVGID_4_);stroke-width:0.803;stroke-miterlimit:10;}
	.st17{fill:none;stroke:url(#SVGID_5_);stroke-width:0.803;stroke-miterlimit:10;}
	.st18{fill:none;stroke:url(#SVGID_6_);stroke-width:0.803;stroke-miterlimit:10;}
	.st19{fill:none;stroke:url(#SVGID_7_);stroke-width:0.803;stroke-miterlimit:10;}
	.st20{fill:none;stroke:url(#SVGID_8_);stroke-width:0.803;stroke-miterlimit:10;}
</style>
<g id="圖層_1">
	<g>
		<rect x="0.36" y="0.36" class="st0" width="17.5" height="17.5"/>
		<rect x="17.86" y="0.36" class="st0" width="17.5" height="17.5"/>
		<rect x="35.36" y="0.36" class="st0" width="17.5" height="17.5"/>
		<rect x="52.86" y="0.36" class="st0" width="17.5" height="17.5"/>
		<rect x="70.36" y="0.36" class="st0" width="17.5" height="17.5"/>
		<rect x="87.86" y="0.36" class="st0" width="17.5" height="17.5"/>
		<rect x="105.36" y="0.36" class="st0" width="17.5" height="17.5"/>
		<rect x="122.86" y="0.36" class="st0" width="17.5" height="17.5"/>
		<rect x="0.36" y="17.86" class="st0" width="17.5" height="17.5"/>
		<rect x="17.86" y="17.86" class="st0" width="17.5" height="17.5"/>
		<rect x="35.36" y="17.86" class="st0" width="17.5" height="17.5"/>
		<rect x="52.86" y="17.86" class="st0" width="17.5" height="17.5"/>
		<g>
			<path class="st3" d="M26.61,16.61c-4.14,0-7.5-3.36-7.5-7.5s3.36-7.5,7.5-7.5c4.14,0,7.5,3.36,7.5,7.5S30.75,16.61,26.61,16.61z"
				/>
			<g>
				<path class="st4" d="M26.61,2.86c3.45,0,6.25,2.8,6.25,6.25c0,3.45-2.8,6.25-6.25,6.25c-3.45,0-6.25-2.8-6.25-6.25
					C20.36,5.67,23.17,2.86,26.61,2.86 M26.61,0.36c-4.83,0-8.75,3.92-8.75,8.75l0,0c0,4.83,3.92,8.75,8.75,8.75
					c4.83,0,8.75-3.92,8.75-8.75l0,0C35.36,4.28,31.45,0.36,26.61,0.36L26.61,0.36z"/>
			</g>
		</g>
		<g>
			<path class="st3" d="M44.11,16.61c-4.14,0-7.5-3.36-7.5-7.5s3.36-7.5,7.5-7.5c4.14,0,7.5,3.36,7.5,7.5S48.25,16.61,44.11,16.61z"
				/>
			<path class="st1" d="M44.11,2.86c3.45,0,6.25,2.8,6.25,6.25c0,3.45-2.8,6.25-6.25,6.25c-3.45,0-6.25-2.8-6.25-6.25
				C37.86,5.67,40.67,2.86,44.11,2.86 M44.11,0.36c-4.83,0-8.75,3.92-8.75,8.75l0,0c0,4.83,3.92,8.75,8.75,8.75
				c4.83,0,8.75-3.92,8.75-8.75l0,0C52.86,4.28,48.95,0.36,44.11,0.36L44.11,0.36z"/>
		</g>
		<g>
			<path class="st3" d="M61.61,16.61c-4.14,0-7.5-3.36-7.5-7.5s3.36-7.5,7.5-7.5c4.14,0,7.5,3.36,7.5,7.5S65.75,16.61,61.61,16.61z"
				/>
			<g>
				<path class="st4" d="M61.61,2.86c3.45,0,6.25,2.8,6.25,6.25c0,3.45-2.8,6.25-6.25,6.25c-3.45,0-6.25-2.8-6.25-6.25
					C55.36,5.67,58.17,2.86,61.61,2.86 M61.61,0.36c-4.83,0-8.75,3.92-8.75,8.75l0,0c0,4.83,3.92,8.75,8.75,8.75
					c4.83,0,8.75-3.92,8.75-8.75l0,0C70.36,4.28,66.45,0.36,61.61,0.36L61.61,0.36z"/>
			</g>
		</g>
		<g>
			<path class="st3" d="M26.61,34.11c-4.14,0-7.5-3.36-7.5-7.5s3.36-7.5,7.5-7.5c4.14,0,7.5,3.36,7.5,7.5S30.75,34.11,26.61,34.11z"
				/>
			<g>
				<path class="st4" d="M26.61,20.36c3.45,0,6.25,2.8,6.25,6.25c0,3.45-2.8,6.25-6.25,6.25c-3.45,0-6.25-2.8-6.25-6.25
					C20.36,23.17,23.17,20.36,26.61,20.36 M26.61,17.86c-4.83,0-8.75,3.92-8.75,8.75l0,0c0,4.83,3.92,8.75,8.75,8.75
					c4.83,0,8.75-3.92,8.75-8.75l0,0C35.36,21.78,31.45,17.86,26.61,17.86L26.61,17.86z"/>
			</g>
		</g>
		<g>
			<path class="st3" d="M61.61,34.11c-4.14,0-7.5-3.36-7.5-7.5s3.36-7.5,7.5-7.5c4.14,0,7.5,3.36,7.5,7.5S65.75,34.11,61.61,34.11z"
				/>
			<g>
				<path class="st4" d="M61.61,20.36c3.45,0,6.25,2.8,6.25,6.25c0,3.45-2.8,6.25-6.25,6.25c-3.45,0-6.25-2.8-6.25-6.25
					C55.36,23.17,58.17,20.36,61.61,20.36 M61.61,17.86c-4.83,0-8.75,3.92-8.75,8.75l0,0c0,4.83,3.92,8.75,8.75,8.75
					c4.83,0,8.75-3.92,8.75-8.75l0,0C70.36,21.78,66.45,17.86,61.61,17.86L61.61,17.86z"/>
			</g>
		</g>
		<rect x="70.36" y="17.86" class="st0" width="17.5" height="17.5"/>
		<rect x="87.86" y="17.86" class="st0" width="17.5" height="17.5"/>
		<rect x="105.36" y="17.86" class="st0" width="17.5" height="17.5"/>
		<rect x="122.86" y="17.86" class="st0" width="17.5" height="17.5"/>
		<rect x="0.36" y="35.36" class="st0" width="17.5" height="17.5"/>
		<rect x="17.86" y="35.36" class="st0" width="17.5" height="17.5"/>
		<rect x="35.36" y="35.36" class="st0" width="17.5" height="17.5"/>
		<rect x="52.86" y="35.36" class="st0" width="17.5" height="17.5"/>
		<rect x="70.36" y="35.36" class="st0" width="17.5" height="17.5"/>
		<rect x="87.86" y="35.36" class="st0" width="17.5" height="17.5"/>
		<rect x="105.36" y="35.36" class="st0" width="17.5" height="17.5"/>
		<rect x="122.86" y="35.36" class="st0" width="17.5" height="17.5"/>
		<rect x="0.36" y="52.86" class="st0" width="17.5" height="17.5"/>
		<rect x="17.86" y="52.86" class="st0" width="17.5" height="17.5"/>
		<rect x="35.36" y="52.86" class="st0" width="17.5" height="17.5"/>
		<rect x="52.86" y="52.86" class="st0" width="17.5" height="17.5"/>
		<rect x="70.36" y="52.86" class="st0" width="17.5" height="17.5"/>
		<rect x="87.86" y="52.86" class="st0" width="17.5" height="17.5"/>
		<rect x="105.36" y="52.86" class="st0" width="17.5" height="17.5"/>
		<rect x="122.86" y="52.86" class="st0" width="17.5" height="17.5"/>
		<rect x="0.36" y="70.36" class="st0" width="17.5" height="17.5"/>
		<rect x="17.86" y="70.36" class="st0" width="17.5" height="17.5"/>
		<rect x="35.36" y="70.36" class="st0" width="17.5" height="17.5"/>
		<rect x="52.86" y="70.36" class="st0" width="17.5" height="17.5"/>
		<rect x="70.36" y="70.36" class="st0" width="17.5" height="17.5"/>
		<rect x="87.86" y="70.36" class="st0" width="17.5" height="17.5"/>
		<rect x="105.36" y="70.36" class="st0" width="17.5" height="17.5"/>
		<rect x="122.86" y="70.36" class="st0" width="17.5" height="17.5"/>
		<rect x="0.36" y="87.86" class="st0" width="17.5" height="17.5"/>
		<rect x="17.86" y="87.86" class="st0" width="17.5" height="17.5"/>
		<rect x="35.36" y="87.86" class="st0" width="17.5" height="17.5"/>
		<rect x="52.86" y="87.86" class="st0" width="17.5" height="17.5"/>
		<rect x="70.36" y="87.86" class="st0" width="17.5" height="17.5"/>
		<rect x="87.86" y="87.86" class="st0" width="17.5" height="17.5"/>
		<rect x="105.36" y="87.86" class="st0" width="17.5" height="17.5"/>
		<rect x="122.86" y="87.86" class="st0" width="17.5" height="17.5"/>
		<g>
			<g>
				<circle class="st3" cx="9.11" cy="9.11" r="7.38"/>
				<g>
					<path class="st1" d="M9.11,3.1c3.32,0,6.02,2.7,6.02,6.02s-2.7,6.02-6.02,6.02S3.1,12.43,3.1,9.11S5.8,3.1,9.11,3.1 M9.11,0.36
						c-4.83,0-8.75,3.92-8.75,8.75s3.92,8.75,8.75,8.75c4.83,0,8.75-3.92,8.75-8.75S13.95,0.36,9.11,0.36L9.11,0.36z"/>
				</g>
			</g>
		</g>
	</g>
</g>
<g id="圖層_2">
</g>
</svg>
